NotoEmoji/emoji_u1f4e8.svg

<svg enable-background="new 0 0 128 128" viewBox="0 0 128 128" xmlns="http://www.w3.org/2000/svg"><path d="m105.78 94.28h-83.24c-2.12 0-2.97-1.36-2.97-3.03l14.12-54.51c0-1.67 1.33-3.03 2.97-3.03h83.24c1.64 0 2.97 1.36 2.97 3.03l-14.12 54.51c0 1.68-1.33 3.03-2.97 3.03z" fill="#fff"/><g stroke-miterlimit="10"><path d="m122.82 36.06s-1.08-1.2-2.5-.07l-43.48 28.78c-3 2.43-7.12 2.42-10.12-.02l-30.29-29.26c-.47-.4-1.18-.33-1.57.15s-.33 1.2.15 1.6l17.93 19.7-32.39 35.18c-.41.47-.48.87-.19 1.08.46.34.75 1.25 1.27.74l34.55-33.44 8.68 9.54c3.93 3.47 9.66 3.42 13.54-.12l9.67-7.47 17.9 30.38c.52.51.96.71 1.42.37.29-.21 1.54-.93 1.13-1.4l-16.61-32.32 29.52-22.79c.47-.41 1.39-.63 1.39-.63z" fill="#6fbff0" stroke="#6fbff0" stroke-width=".5"/><path d="m105.78 94.28h-83.24c-2.12 0-2.97-1.36-2.97-3.03l14.12-54.51c0-1.67 1.33-3.03 2.97-3.03h83.24c1.64 0 2.97 1.36 2.97 3.03l-14.12 54.51c0 1.68-1.33 3.03-2.97 3.03z" fill="none" stroke="#6fbff0" stroke-width="4"/><path d="m5.13 36.11h21.56" fill="none" stroke="#b0bec5" stroke-linecap="round" stroke-linejoin="round" stroke-width="4"/><path d="m5.13 47.31h15.45" fill="none" stroke="#b0bec5" stroke-linecap="round" stroke-linejoin="round" stroke-width="4"/><path d="m5.13 47.31h12.52" fill="none" stroke="#b0bec5" stroke-linecap="round" stroke-linejoin="round" stroke-width="4"/><path d="m5.13 57.51h6.26" fill="none" stroke="#b0bec5" stroke-linecap="round" stroke-linejoin="round" stroke-width="4"/></g></svg>

<?xml version="1.0" encoding="utf-8"?>
<!-- Generator: Adobe Illustrator 25.2.3, SVG Export Plug-In . SVG Version: 6.00 Build 0)  -->
<svg version="1.1" id="Layer_3_copy" xmlns="http://www.w3.org/2000/svg" xmlns:xlink="http://www.w3.org/1999/xlink" x="0px"
	 y="0px" viewBox="0 0 128 128" style="enable-background:new 0 0 128 128;" xml:space="preserve">
<g>
	<g>
		<path style="fill:#FFFFFF;" d="M105.78,94.28H22.54c-2.12,0-2.97-1.36-2.97-3.03l14.12-54.51c0-1.67,1.33-3.03,2.97-3.03h83.24
			c1.64,0,2.97,1.36,2.97,3.03l-14.12,54.51C108.75,92.93,107.42,94.28,105.78,94.28z"/>
		<path style="fill:#6FBFF0;stroke:#6FBFF0;stroke-width:0.5;stroke-miterlimit:10;" d="M122.82,36.06c0,0-1.08-1.2-2.5-0.07
			L76.84,64.77c-3,2.43-7.12,2.42-10.12-0.02L36.43,35.49c-0.47-0.4-1.18-0.33-1.57,0.15c-0.39,0.48-0.33,1.2,0.15,1.6l17.93,19.7
			L20.55,92.12c-0.41,0.47-0.48,0.87-0.19,1.08c0.46,0.34,0.75,1.25,1.27,0.74L56.18,60.5l8.68,9.54c3.93,3.47,9.66,3.42,13.54-0.12
			l9.67-7.47l17.9,30.38c0.52,0.51,0.96,0.71,1.42,0.37c0.29-0.21,1.54-0.93,1.13-1.4L91.91,59.48l29.52-22.79
			C121.9,36.28,122.82,36.06,122.82,36.06z"/>
		<path style="fill:none;stroke:#6FBFF0;stroke-width:4;stroke-miterlimit:10;" d="M105.78,94.28H22.54c-2.12,0-2.97-1.36-2.97-3.03
			l14.12-54.51c0-1.67,1.33-3.03,2.97-3.03h83.24c1.64,0,2.97,1.36,2.97,3.03l-14.12,54.51C108.75,92.93,107.42,94.28,105.78,94.28z
			"/>
	</g>
	
		<line style="fill:none;stroke:#B0BEC5;stroke-width:4;stroke-linecap:round;stroke-linejoin:round;stroke-miterlimit:10;" x1="5.13" y1="36.11" x2="26.69" y2="36.11"/>
	
		<line style="fill:none;stroke:#B0BEC5;stroke-width:4;stroke-linecap:round;stroke-linejoin:round;stroke-miterlimit:10;" x1="5.13" y1="47.31" x2="20.58" y2="47.31"/>
	
		<line style="fill:none;stroke:#B0BEC5;stroke-width:4;stroke-linecap:round;stroke-linejoin:round;stroke-miterlimit:10;" x1="5.13" y1="47.31" x2="17.65" y2="47.31"/>
	
		<line style="fill:none;stroke:#B0BEC5;stroke-width:4;stroke-linecap:round;stroke-linejoin:round;stroke-miterlimit:10;" x1="5.13" y1="57.51" x2="11.39" y2="57.51"/>
</g>
</svg>
